public/img/ig.svg

<svg width="25" height="24" viewBox="0 0 25 24" fill="none" xmlns="http://www.w3.org/2000/svg">
<g clip-path="url(#clip0)">
<path d="M17 -0.000366211H8C3.8585 -0.000366211 0.5 3.35813 0.5 7.49963V16.4996C0.5 20.6411 3.8585 23.9996 8 23.9996H17C21.1415 23.9996 24.5 20.6411 24.5 16.4996V7.49963C24.5 3.35813 21.1415 -0.000366211 17 -0.000366211ZM22.25 16.4996C22.25 19.3946 19.895 21.7496 17 21.7496H8C5.105 21.7496 2.75 19.3946 2.75 16.4996V7.49963C2.75 4.60463 5.105 2.24963 8 2.24963H17C19.895 2.24963 22.25 4.60463 22.25 7.49963V16.4996Z" fill="#333333"/>
<path d="M12.5 5.99963C9.1865 5.99963 6.5 8.68613 6.5 11.9996C6.5 15.3131 9.1865 17.9996 12.5 17.9996C15.8135 17.9996 18.5 15.3131 18.5 11.9996C18.5 8.68613 15.8135 5.99963 12.5 5.99963ZM12.5 15.7496C10.433 15.7496 8.75 14.0666 8.75 11.9996C8.75 9.93113 10.433 8.24963 12.5 8.24963C14.567 8.24963 16.25 9.93113 16.25 11.9996C16.25 14.0666 14.567 15.7496 12.5 15.7496Z" fill="#333333"/>
<path d="M18.9499 6.34887C19.3914 6.34887 19.7494 5.99092 19.7494 5.54937C19.7494 5.10782 19.3914 4.74988 18.9499 4.74988C18.5083 4.74988 18.1504 5.10782 18.1504 5.54937C18.1504 5.99092 18.5083 6.34887 18.9499 6.34887Z" fill="#333333"/>
</g>
<defs>
<clipPath id="clip0">
<rect x="0.5" y="-0.000366211" width="24" height="24" fill="white"/>
</clipPath>
</defs>
</svg>

<svg width="25" height="24" fill="none" xmlns="http://www.w3.org/2000/svg"><g clip-path="url(#clip0)" fill="#333"><path d="M17 0H8A7.5 7.5 0 00.5 7.5v9A7.5 7.5 0 008 24h9a7.5 7.5 0 007.5-7.5v-9A7.5 7.5 0 0017 0zm5.25 16.5A5.256 5.256 0 0117 21.75H8a5.256 5.256 0 01-5.25-5.25v-9A5.256 5.256 0 018 2.25h9a5.256 5.256 0 015.25 5.25v9z"/><path d="M12.5 6a6 6 0 100 12 6 6 0 000-12zm0 9.75A3.755 3.755 0 018.75 12a3.754 3.754 0 013.75-3.75A3.754 3.754 0 0116.25 12a3.755 3.755 0 01-3.75 3.75zm6.45-9.401a.8.8 0 100-1.6.8.8 0 000 1.6z"/></g><defs><clipPath id="clip0"><path fill="#fff" d="M.5 0h24v24H.5z"/></clipPath></defs></svg>
